!!!OTL: 537a. Falacher Sinn.
!!!ODT: 1845
!!!ARE: Europa, Mitteleuropa, Deutschland, Schlesien, Hainau
!!!SCT: E0537
!!!TXL: @@DE
!!!YEM: Copyright 1995, estate of Helmut Schaffrath.
**kern	**text
*ICvox	*
*M4/4	*
*met(c)	*
*k[f#]	*
*G:	*
!LO:TX:a:t=Mäßig geschwind.	!
!LO:TX:a:t=Aus Schleſien (Gegend von Hainau). 1845.	!
{4d	Jetʒt
=1	=1
4g	kommt
4g	die
4b/	Ʒeit
(8a	daß
8g)	ich
=2	=2
(4.f#	wan-
8g)	-dern
4a}	muß,
{4d	mein
=3	=3
4g	Schatʒ,
4g	mein
4cc	Au-
4b	-gen-
=4	=4
2a	-troſt!!
4r}	.
{8aL	Wann
8bJ	.
=5	=5
4cc	wirſt
4ee	du
4cc	wie-
4a	-der
=6	=6
(4b	kom-
4dd)	.
4b}	-men,
{8g	daß
8b/	du
=7	=7
4a	mich
4cc	er-
4a	-freu-
4f#	-en
=8	=8
2g	thuſt?
4r}	.
==	==
!!!AGN: Liebes - Lied
!!!ONB: ESAC (Essen Associative Code) Database: ERK1
!!!AMT: simple quadruple
!!!AIN: vox
!!!EED: Helmut Schaffrath
!!!EEV: 1.0
!!!GTL: Liebeslieder [Neuere (aus dem 18. bis 19. Jahrh.) - Liebeslust]
!!!URL-scan: https://rosdok.uni-rostock.de/mcrviewer/recordIdentifier/rosdok_ppn745177662/iview2/phys_0367.iview2?x=-128.77276441889308&y=1026.6123875402845&scale=0.5870222003877485&rotation=0&layout=singlePageLayout
!!!ENC: Anna Maria Matuszewska
!!!EEV: 2024/10/12
*-	*-
